svgs/solid/thumbtack.svg

<svg xmlns="http://www.w3.org/2000/svg" viewBox="0 0 384 512"><!--! Font Awesome Pro 6.1.2 by @fontawesome - https://fontawesome.com License - https://fontawesome.com/license (Commercial License) Copyright 2022 Fonticons, Inc. --><path d="M32 32C32 14.33 46.33 0 64 0H320C337.7 0 352 14.33 352 32C352 49.67 337.7 64 320 64H290.5L301.9 212.2C338.6 232.1 367.5 265.4 381.4 306.9L382.4 309.9C385.6 319.6 383.1 330.4 377.1 338.7C371.9 347.1 362.3 352 352 352H32C21.71 352 12.05 347.1 6.04 338.7C.0259 330.4-1.611 319.6 1.642 309.9L2.644 306.9C16.47 265.4 45.42 232.1 82.14 212.2L93.54 64H64C46.33 64 32 49.67 32 32zM224 384V480C224 497.7 209.7 512 192 512C174.3 512 160 497.7 160 480V384H224z"/></svg>

<svg xmlns="http://www.w3.org/2000/svg" viewBox="0 0 384 512"><!--! Font Awesome Pro 6.2.0 by @fontawesome - https://fontawesome.com License - https://fontawesome.com/license (Commercial License) Copyright 2022 Fonticons, Inc. --><path d="M32 32C32 14.3 46.3 0 64 0H320c17.7 0 32 14.3 32 32s-14.3 32-32 32H290.5l11.4 148.2c36.7 19.9 65.7 53.2 79.5 94.7l1 3c3.3 9.8 1.6 20.5-4.4 28.8s-15.7 13.3-26 13.3H32c-10.3 0-19.9-4.9-26-13.3s-7.7-19.1-4.4-28.8l1-3c13.8-41.5 42.8-74.8 79.5-94.7L93.5 64H64C46.3 64 32 49.7 32 32zM160 384h64v96c0 17.7-14.3 32-32 32s-32-14.3-32-32V384z"/></svg>
